Obsidian/actions/16s/window-close-symbolic.svg

<svg height="16" width="16" xmlns="http://www.w3.org/2000/svg"><path d="m7.966475 6.3755 2.846025-2.8755 1.6875 1.6875-2.923425 2.797875 2.923425 2.827125-1.6875 1.6875-2.8269-2.923875-2.7981 2.923875-1.6875-1.6875 2.909025-2.8125-2.909025-2.8125 1.6875-1.6875z" fill="#bebebe" fill-rule="evenodd"/></svg>

<?xml version="1.0" encoding="UTF-8" standalone="no"?>
<svg
   xmlns:dc="http://purl.org/dc/elements/1.1/"
   xmlns:cc="http://creativecommons.org/ns#"
   xmlns:rdf="http://www.w3.org/1999/02/22-rdf-syntax-ns#"
   xmlns:svg="http://www.w3.org/2000/svg"
   xmlns="http://www.w3.org/2000/svg"
   xmlns:sodipodi="http://sodipodi.sourceforge.net/DTD/sodipodi-0.dtd"
   xmlns:inkscape="http://www.inkscape.org/namespaces/inkscape"
   height="16"
   width="16"
   version="1.1"
   id="svg2"
   inkscape:version="0.48.5 r10040"
   sodipodi:docname="window-close-symbolic.svg">
  <metadata
     id="metadata17">
    <rdf:RDF>
      <cc:Work
         rdf:about="">
        <dc:format>image/svg+xml</dc:format>
        <dc:type
           rdf:resource="http://purl.org/dc/dcmitype/StillImage" />
        <dc:title />
      </cc:Work>
    </rdf:RDF>
  </metadata>
  <sodipodi:namedview
     pagecolor="#ffffff"
     bordercolor="#666666"
     borderopacity="1"
     objecttolerance="10"
     gridtolerance="10"
     guidetolerance="10"
     inkscape:pageopacity="0"
     inkscape:pageshadow="2"
     inkscape:window-width="1015"
     inkscape:window-height="739"
     id="namedview15"
     showgrid="true"
     inkscape:zoom="22.47619"
     inkscape:cx="6.4237288"
     inkscape:cy="10.72746"
     inkscape:window-x="260"
     inkscape:window-y="163"
     inkscape:window-maximized="0"
     inkscape:current-layer="svg2">
    <inkscape:grid
       type="xygrid"
       id="grid2986"
       empspacing="5"
       visible="true"
       enabled="true"
       snapvisiblegridlinesonly="true" />
  </sodipodi:namedview>
  <defs
     id="defs4">
    <linearGradient
       id="a"
       y2="12.083"
       gradientUnits="userSpaceOnUse"
       x2="11.17"
       gradientTransform="matrix(0.70711,0.70711,-0.70711,0.70711,10.121,-2.435)"
       y1="7.8435998"
       x1="6.9308">
      <stop
         offset="0"
         id="stop7" />
      <stop
         stop-color="#646464"
         offset="1"
         id="stop9" />
    </linearGradient>
  </defs>
  <path
     d="M 7.966475,6.3755 10.8125,3.5 12.5,5.1875 9.576575,7.985375 12.5,10.8125 10.8125,12.5 7.9856,9.576125 5.1875,12.5 3.5,10.8125 6.409025,8 3.5,5.1875 5.1875,3.5 7.966475,6.3755 z"
     id="path13"
     style="fill:#bebebe;fill-opacity:1;fill-rule:evenodd"
     inkscape:connector-curvature="0" />
</svg>
